assets/icons/icon_sticks.svg

<svg width="30" height="30" viewBox="0 0 30 30" fill="none" xmlns="http://www.w3.org/2000/svg">
<g clip-path="url(#clip0_79_229)">
<path d="M11.7051 22.5V28.1818" stroke="white" stroke-width="1.70455" stroke-linecap="round"/>
<path d="M6.02246 24.7732V28.1823" stroke="white" stroke-width="1.70455" stroke-linecap="round"/>
<path d="M17.3867 17.955V28.1823" stroke="white" stroke-width="1.70455" stroke-linecap="round"/>
<path d="M23.0684 13.4086V28.1814" stroke="white" stroke-width="1.70455" stroke-linecap="round"/>
<path d="M28.75 8.86365V28.1818" stroke="white" stroke-width="1.70455" stroke-linecap="round"/>
<path d="M5.4834 5.67896V7.51991H8.24476L6.24022 12.4801H8.54138L11.1186 6.02668V5.67896H5.4834Z" fill="white"/>
<path d="M8.29572 15.6818C12.0613 15.6818 15.1139 12.6292 15.1139 8.86365C15.1139 5.09808 12.0613 2.04547 8.29572 2.04547C4.53014 2.04547 1.47754 5.09808 1.47754 8.86365C1.47754 12.6292 4.53014 15.6818 8.29572 15.6818Z" stroke="white" stroke-width="1.70455"/>
</g>
<defs>
<clipPath id="clip0_79_229">
<rect width="30" height="30" fill="white"/>
</clipPath>
</defs>
</svg>

<svg xmlns="http://www.w3.org/2000/svg" width="30" height="30" fill="none" viewBox="0 0 30 30"><g clip-path="url(#a)"><path stroke="#fff" stroke-linecap="round" stroke-width="1.705" d="M11.705 22.5v5.682M6.022 24.773v3.41M17.387 17.955v10.227M23.068 13.409V28.18M28.75 8.864v19.318"/><path fill="#fff" d="M5.483 5.679v1.84h2.762L6.24 12.48h2.301l2.578-6.453v-.348z"/><path stroke="#fff" stroke-width="1.705" d="M8.296 15.682a6.818 6.818 0 1 0 0-13.637 6.818 6.818 0 0 0 0 13.637Z"/></g><defs><clipPath id="a"><path fill="#fff" d="M0 0h30v30H0z"/></clipPath></defs></svg>
